X: 116
T: Taiping diao
%%abc-version 2.0
%%abcx-abcm2ps-target-version 5.9.1 (29 Sep 2008)
%%abc-creator hum2abc beta
%%abcx-conversion-date 2013/10/02 07:52:29
%%abc-edited-by Helmut Schaffrath
%%humdrum-veritas 1239791648
%%humdrum-veritas-data 2447175123
%%continueall 1
%%barnumbers 0
L: 1/8
M: 2/4
K: F
A c d c [I:setbarnb 1]| 
c3f | 
A G F D | 
G4 | 
G> G G A | 
c2d c | 
A3G | 
F G c A | 
G4 | 
G Ac2 | 
d c A G | 
F3A | 
G A G F | 
D D F D | 
C4 | 
DD2F | 
G2A G | 
F4 | 
D F G A | 
C4 | 
D2F D | 
C3D | 
C2C2 | 
C4 |]  



